X: 37883
T: Soup Dragon, The
R: jig
M: 6/8
K: Bminor
A|:BEE D3|ABB BAG|A3 A2G|ABB AGA|
BEE EDE|ABB BAG|A3 B2A|GED E2 A:|
|:Bdd dBG|ABB BAG|A3 A2 G|ABB AGA|
Bdd dBG|ABB BAG|A3 B2A|GED E2 A||
Bdd dBG|ABB BAG|A3 D3|ABB AGA|
BEE EDE|ABB BAG|A3 B2A|GED E3||

